X: 3
T: The Monaghan Twig
R: reel
M: 4/4
L: 1/8
K: Amix
A3G cdec|cAAG EDEB|~A3B cded|BAGB dfed|cAAB cAec|cAAG EDEB|~A3B cded|BAGB dfeA||(3Bcd ef gfed|(3Bcdef edeA|(3Bcd ef gfge|dBGB dfeA|(3Bcd ed cded|cAAB cdef|gfge dfed|BAGB dfec||


Tune 1070	Setting 14296

